16x16/apps/hulu.svg

<svg xmlns="http://www.w3.org/2000/svg" width="16" height="16" version="1"><rect style="fill:#6a3" width="15" height="15" x="1" y="1" rx=".75" ry=".75"/><path style="fill:#f4f4f7" d="M10 6h1v4h-1z"/><path style="fill:none;stroke:#f4f4f7" d="M2.5 10V8c0-.375.625-.5 1-.5s1 .125 1 .5v2"/><path style="fill:#f4f4f7" d="M2 6h1v4H2z"/><path style="fill:none;stroke:#f4f4f7" d="M6.5 7v2c0 .375.625.5 1 .5s1-.125 1-.5V7M12.5 7v2c0 .375.625.5 1 .5s1-.125 1-.5V7"/></svg>

<svg xmlns="http://www.w3.org/2000/svg" width="16" height="16" version="1">
 <rect style="fill:#66aa33" width="15" height="15" x="1" y="1" rx=".75" ry=".75"/>
 <rect style="fill:#f4f4f7" width="1" height="4" x="10" y="6"/>
 <path style="fill:none;stroke:#f4f4f7" d="M 2.5,10 V 8 C 2.5,7.625 3.125,7.5 3.5,7.5 3.875,7.5 4.5,7.625 4.5,8 V 10"/>
 <rect style="fill:#f4f4f7" width="1" height="4" x="2" y="6"/>
 <path style="fill:none;stroke:#f4f4f7" d="M 6.5,7 V 9 C 6.5,9.375 7.125,9.5 7.5,9.5 7.875,9.5 8.5,9.375 8.5,9 V 7"/>
 <path style="fill:none;stroke:#f4f4f7" d="M 12.5,7 V 9 C 12.5,9.375 13.125,9.5 13.5,9.5 13.875,9.5 14.5,9.375 14.5,9 V 7"/>
</svg>
